!!!COM: Copland, Aaron
!!!OTL: El Salón México (The Mexico Salon) for Orchestra
!!!OMV:
!!!example: 710
!!!work: Cop-13
**kern	**dynam	**kern	**dynam	**kern	**dynam	**kern	**dynam	**kern	**dynam	**kern	**kern	**dynam	**kern	**dynam	**kern	**dynam	**kern	**dynam	**kern
*part11	*part11	*part10	*part10	*part9	*part9	*part8	*part8	*part7	*part7	*part6	*part5	*part5	*part4	*part4	*part3	*part3	*part2	*part2	*part1
*staff11	*	*staff10	*	*staff9	*	*staff8	*	*staff7	*	*staff6	*staff5	*	*staff4	*	*staff3	*	*staff2	*	*staff1
*I"Violoncello	*	*I"Viola	*	*I"Violin II	*	*I"Violin I	*	*I"Violin I	*	*I"Trumpet in C	*I"Horn in F	*	*I"Bassoon	*	*I"Bass Clarinet in Bb	*	*I"Clarinet in Bb	*	*I"Flute
*I'Vc.	*	*I'Vla.	*	*I'Vln. II	*	*I'Vln. I	*	*I'Vln. I	*	*I'C Tpt.	*I'Hn.	*	*I'Bsn.	*	*I'B. Cl.	*	*I'Cl.	*	*I'Fl.
*clefF4	*	*clefC3	*	*clefG2	*	*clefG2	*	*clefG2	*	*clefG2	*clefG2	*	*clefF4	*	*clefF4	*	*clefG2	*	*clefG2
*k[]	*	*k[]	*	*k[]	*	*k[]	*	*k[]	*	*k[]	*	*	*k[]	*	*k[]	*	*k[]	*	*k[]
*	*	*	*	*	*	*	*	*	*	*	*	*	*	*	*	*	*	*	*
*M6/8	*	*M6/8	*	*M6/8	*	*M6/8	*	*M6/8	*	*M6/8	*M6/8	*	*M6/8	*	*M6/8	*	*M6/8	*	*M6/8
*MM121	*	*MM121	*	*MM121	*	*MM121	*	*MM121	*	*MM121	*MM121	*	*MM121	*	*MM121	*	*MM121	*	*MM121
=239	=239	=239	=239	=239	=239	=239	=239	=239	=239	=239	=239	=239	=239	=239	=239	=239	=239	=239	=239
(8FFL	.	2.r	.	2.r	.	(8b~L	.	4b~ 4dd	.	4g 4b	[2.D	.	2.r	.	2.r	.	2.r	.	4g 4dd
8D)	.	.	.	.	.	8g)	.	.	.	.	.	.	.	.	.	.	.	.	.
8DDJ	.	.	.	.	.	(8b~J	.	4b~ 4dd	.	8r	.	.	.	.	.	.	.	.	8r
8DL	.	.	.	.	.	8gL)	.	.	.	4.r	.	.	.	.	.	.	.	.	4.r
(8FF	.	.	.	.	.	(8b~	.	4cc~ 4ee	.	.	.	.	.	.	.	.	.	.	.
8DJ)	.	.	.	.	.	8gJ)	.	.	.	.	.	.	.	.	.	.	.	.	.
=240	=240	=240	=240	=240	=240	=240	=240	=240	=240	=240	=240	=240	=240	=240	=240	=240	=240	=240	=240
(4DD	.	2.r	.	2.r	.	(4cc~	.	4b~ 4dd	.	2.r	4.D_	.	2.r	.	4r	.	4r	.	2.r
8D)	.	.	.	.	.	8g)	.	8r	.	.	.	.	.	.	8r	.	8r	.	.
4.r	.	.	.	.	.	4.r	.	4.r	.	.	8D]	.	.	.	8FFL	p	8r	.	.
.	.	.	.	.	.	.	.	.	.	.	8r	.	.	.	(8D	.	(8bL 8dd	p	.
.	.	.	.	.	.	.	.	.	.	.	8r	.	.	.	8DDJ)	.	8gJ)	.	.
=241	=241	=241	=241	=241	=241	=241	=241	=241	=241	=241	=241	=241	=241	=241	=241	=241	=241	=241	=241
(4D	.	2.r	.	2.r	.	2.r	.	(4cc~ 4ee	.	2.r	2.r	.	2.r	.	(4D	.	(4cc 4ee	.	2.r
8FF)	.	.	.	.	.	.	.	8g)	.	.	.	.	.	.	8FF)	.	8g)	.	.
(4D	.	.	.	.	.	.	.	(4b~ 4dd	.	.	.	.	.	.	(4D	.	(4b 4dd	.	.
8DD)	.	.	.	.	.	.	.	8g)	.	.	.	.	.	.	8DD)	.	8g)	.	.
=242	=242	=242	=242	=242	=242	=242	=242	=242	=242	=242	=242	=242	=242	=242	=242	=242	=242	=242	=242
4r	.	4r	.	4r	.	4r	.	4r	.	2.r	4r	.	4r	.	(4D	.	(4b 4dd	.	2.r
8r	.	8r	.	8r	.	8r	.	8r	.	.	8r	.	8r	.	8FF)	.	8g)	.	.
8r	.	4r	.	8r	.	8r	.	8r	.	.	[4D	pp	8r	.	4.r	.	4.r	.	.
!LO:TX:a:t=pizz.	!	!	!	!	!	!	!	!	!	!	!	!	!	!	!	!	!	!	!
8DD	p	.	.	(8ddL	p	(8bL	p	(8bL	p	.	.	.	8DD'L	p	.	.	.	.	.
!	!	!LO:TX:a:t=pizz.	!	!	!	!	!	!	!	!	!	!	!	!	!	!	!	!	!
8r	.	8D	p	8gJ)	.	8gJ)	.	8gJ)	.	.	8D_ [8d	.	8D'J	.	.	.	.	.	.
=243	=243	=243	=243	=243	=243	=243	=243	=243	=243	=243	=243	=243	=243	=243	=243	=243	=243	=243	=243
8FF	.	8r	.	(8dd^L	.	(8b^L	.	(8b^L	.	2.r	2.D_ 2.d_	.	8FF'L	.	2.r	.	4r	.	4r
8r	.	8D	.	8g)	.	8g)	.	8g)	.	.	.	.	8D'	.	.	.	.	.	.
8BB-X	.	8r	.	8bJ	.	8ddJ	.	8ddJ	.	.	.	.	8BB-X'J	.	.	.	[8dd	p	8r
8r	.	8D^	.	8gL	.	8gL	.	8gL	.	.	.	.	8D'L	.	.	.	4.dd_	.	8r
8FF	.	8r	.	(8cc	.	(8ee	.	(8ee	.	.	.	.	8FF'	.	.	.	.	.	8r
.	.	.	.	.	.	.	.	.	.	.	.	.	.	.	.	.	.	.	(8qdd/
8r	.	8D	.	8gJ)	.	8gJ)	.	8gJ)	.	.	.	.	8D'J	.	.	.	.	.	[8ddd)
=244	=244	=244	=244	=244	=244	=244	=244	=244	=244	=244	=244	=244	=244	=244	=244	=244	=244	=244	=244
8DD	.	8r	.	(8b^	.	(8dd^	.	(8dd^	.	2.r	2.D_ 2.d_	.	8DD'L	.	2.r	.	2.dd_	.	2.ddd_
8r	.	8D	.	4g)	.	4g)	.	4g)	.	.	.	.	8D'	.	.	.	.	.	.
8FF	.	8r	.	.	.	.	.	.	.	.	.	.	8FF'J	.	.	.	.	.	.
8r	.	8D^	.	(8ddL	.	(8bL	.	(8bL	.	.	.	.	8D'L	.	.	.	.	.	.
8BB-X	.	8r	.	8g)	.	8g)	.	8g)	.	.	.	.	8BB-X'	pp	.	.	.	.	.
8r	.	8D	.	(8ddJ	.	(8bJ	.	(8bJ	.	.	.	.	8D'J	.	.	.	.	.	.
=245	=245	=245	=245	=245	=245	=245	=245	=245	=245	=245	=245	=245	=245	=245	=245	=245	=245	=245	=245
8FF	.	8r	.	8gL)	.	8gL)	.	8gL)	.	2.r	2.D_ 2.d_	.	8FF'L	.	2.r	.	2.dd_	.	2.ddd_
8r	.	8D	.	8b	.	8dd	.	8dd	.	.	.	.	8D'	.	.	.	.	.	.
8BB-X	.	8r	.	8gJ	.	8gJ	.	8gJ	.	.	.	.	8BB-X'J	.	.	.	.	.	.
8r	.	8D^	.	(8ccL	.	(8eeL	.	(8eeL	.	.	.	.	8D'L	.	.	.	.	.	.
8DD	.	8r	.	8g)	.	8g)	.	8g)	.	.	.	.	8DD'	.	.	.	.	.	.
8r	.	8D	.	(8bJ	.	(8ddJ	.	(8ddJ	.	.	.	.	8D'J	.	.	.	.	.	.
=246	=246	=246	=246	=246	=246	=246	=246	=246	=246	=246	=246	=246	=246	=246	=246	=246	=246	=246	=246
8FF	.	8r	.	4g)	.	4g)	.	4g)	.	2.r	8D] 8d]	.	8FF'L	.	2.r	.	4.dd]	.	2.ddd]
8r	.	8D	.	.	.	.	.	.	.	.	[4D [4d	.	8D'	.	.	.	.	.	.
8BB-X	.	8r	.	(8dd	.	(8b	.	(8b	.	.	.	.	8BB-X'J	.	.	.	.	.	.
8r	.	8D^	.	8gL)	.	8gL)	.	8gL)	.	.	4.D_ 4.d_	.	8D'L	.	.	.	8r	.	.
8FF	.	8r	.	(8b	.	(8dd	.	(8dd	.	.	.	.	8FF'	.	.	.	[4dd	.	.
8r	.	8D	.	8gJ)	.	8gJ)	.	8gJ)	.	.	.	.	8D'J	.	.	.	.	.	.
=	=	=	=	=	=	=	=	=	=	=	=	=	=	=	=	=	=	=	=
*-	*-	*-	*-	*-	*-	*-	*-	*-	*-	*-	*-	*-	*-	*-	*-	*-	*-	*-	*-
!!!system-decoration: [(s1,s2,s3,s4)][(s5,s6)][(s7,s8,s9,s10,s11)]
!!!CDT: 1900/11/14-1990/12/02
!!!CBL: Brooklyn, United States
!!!CDL: North Tarrytown, United States
!!!CNT: American
!!!AGN: Orchestral; Programmatic
!!!MCN: Chavez, Carlos
!!!MDT: 1937/08/27
!!!MGN: Orquésta Sinfónica de México
!!!MLC: Mexico City, Mexico
!!!MPD: 1937
!!!MPN:
!!!ODT: 1936
!!!PDT: 1939
!!!excerpt-start-measure: 239
!!!excerpt-end-measure: 246
!!!excerpt-start-time: 7:07
!!!excerpt-end-time: 7:18
!!!EEV: 2020/01/27
!!!ONB: Converted from MusicXML on 2020/01/27
